X:8325
T: Julie Delaney
M:4/4
L:1/16
Q:130
S:Bothy Band's _First Album_
K:F
|:dcAG F2DF E2CE FDDD|dcAG FDDF Add^c d2de:|
|:fede fagf ecgc acgc|fede fagf edc=B Adde|
fede fagf ecgc acgc|1 fedf edc=B Add^c d2 de:|2 fedf edc=B Add^c d4||
